symbols/web/fit_screen/materialsymbolsoutlined/fit_screen_wght100grad200_20px.svg

<svg xmlns="http://www.w3.org/2000/svg" height="20" width="20"><path d="M16.729 7.479V5.646q0-.25-.208-.458-.209-.209-.459-.209h-1.854V3.771h1.854q.792 0 1.334.542.542.541.542 1.333v1.833Zm-14.646 0V5.646q0-.792.542-1.333.542-.542 1.333-.542h1.834v1.208H3.958q-.25 0-.458.209-.208.208-.208.458v1.833Zm12.125 8.729V15h1.854q.25 0 .459-.208.208-.209.208-.459V12.5h1.209v1.833q0 .792-.542 1.334-.542.541-1.334.541Zm-10.25 0q-.791 0-1.333-.541-.542-.542-.542-1.334V12.5h1.209v1.833q0 .25.208.459.208.208.458.208h1.834v1.208ZM6.5 11.792V8.188h7.021v3.604Zm1.208-1.209h4.604V9.396H7.708Zm0 0V9.396v1.187Z"/></svg>

<svg xmlns="http://www.w3.org/2000/svg" height="20" width="20"><path d="M16.729 7.479V5.646Q16.729 5.396 16.521 5.188Q16.312 4.979 16.062 4.979H14.208V3.771H16.062Q16.854 3.771 17.396 4.313Q17.938 4.854 17.938 5.646V7.479ZM2.083 7.479V5.646Q2.083 4.854 2.625 4.313Q3.167 3.771 3.958 3.771H5.792V4.979H3.958Q3.708 4.979 3.5 5.188Q3.292 5.396 3.292 5.646V7.479ZM14.208 16.208V15H16.062Q16.312 15 16.521 14.792Q16.729 14.583 16.729 14.333V12.5H17.938V14.333Q17.938 15.125 17.396 15.667Q16.854 16.208 16.062 16.208ZM3.958 16.208Q3.167 16.208 2.625 15.667Q2.083 15.125 2.083 14.333V12.5H3.292V14.333Q3.292 14.583 3.5 14.792Q3.708 15 3.958 15H5.792V16.208ZM6.5 11.792V8.188H13.521V11.792ZM7.708 10.583H12.312V9.396H7.708ZM7.708 10.583V9.396V10.583Z"/></svg>
